X: 11882
T: Emma
R: waltz
M: 3/4
K: Eminor
|:B>c BG EE|B>c BG EG|F>A GF E^D|E>F GA B2|
B2 BG EG|B>c BG E2|F2 F/G/A GF|E>F GF E2:|
|:e2- ee dc|B>c BE GE|F>A GF E^D|E>F GA B2|
e>f gf ec|B>c dc BG|F2 F/G/A GF|E>F GF E2:|
P: swung:
|:B>c B>G E>G|B>c B>G (3EFG|F>A G>F E>^D|E>F G>A B2|
B2 B>G (3EFG|B>c B>G E2|F2 (3FGA G>F|E>F G>F E2:|
|:e2 e>E d>E|B2 B>E G>E|F2 G>F E>^D|E>F G>A B>g|
e2 g>c e>c|B2 d>G (3BAG|F2 (3FGA G>F|E2- E>^D E2:|

